resources/haticons/SVG/brightness-contrast.svg

<svg height="24" width="24" xmlns="http://www.w3.org/2000/svg"><path d="m12 6a6 6 0 1 0 0 12 6 6 0 0 0 0-12zm0 9.75v-7.5c2.068 0 3.75 1.682 3.75 3.75s-1.682 3.75-3.75 3.75zm0 3.75a1.5 1.5 0 0 1 1.5 1.5v1.5a1.5 1.5 0 0 1 -3 0v-1.5a1.5 1.5 0 0 1 1.5-1.5zm0-15a1.5 1.5 0 0 1 -1.5-1.5v-1.5a1.5 1.5 0 0 1 3 0v1.5a1.5 1.5 0 0 1 -1.5 1.5zm10.5 6a1.5 1.5 0 0 1 0 3h-1.5a1.5 1.5 0 0 1 0-3zm-18 1.5a1.5 1.5 0 0 1 -1.5 1.5h-1.5a1.5 1.5 0 0 1 0-3h1.5a1.5 1.5 0 0 1 1.5 1.5zm14.925 5.303 1.061 1.061a1.5 1.5 0 1 1 -2.121 2.121l-1.061-1.061a1.5 1.5 0 1 1 2.121-2.121zm-14.85-10.606-1.061-1.061a1.5 1.5 0 1 1 2.121-2.121l1.061 1.061a1.5 1.5 0 1 1 -2.121 2.121zm14.85 0a1.5 1.5 0 1 1 -2.121-2.121l1.061-1.061a1.5 1.5 0 1 1 2.121 2.121zm-14.85 10.606a1.5 1.5 0 1 1 2.121 2.121l-1.061 1.061a1.5 1.5 0 1 1 -2.121-2.121z"/></svg>

<svg xmlns="http://www.w3.org/2000/svg" width="24" height="24"><path d="M12 6a6 6 0 1 0 0 12 6 6 0 0 0 0-12zm0 9.75v-7.5c2.068 0 3.75 1.682 3.75 3.75s-1.682 3.75-3.75 3.75zm0 3.75a1.5 1.5 0 0 1 1.5 1.5v1.5a1.5 1.5 0 0 1-3 0V21a1.5 1.5 0 0 1 1.5-1.5zm0-15A1.5 1.5 0 0 1 10.5 3V1.5a1.5 1.5 0 0 1 3 0V3A1.5 1.5 0 0 1 12 4.5zm10.5 6a1.5 1.5 0 0 1 0 3H21a1.5 1.5 0 0 1 0-3h1.5zM4.5 12A1.5 1.5 0 0 1 3 13.5H1.5a1.5 1.5 0 0 1 0-3H3A1.5 1.5 0 0 1 4.5 12zm14.925 5.303l1.061 1.061a1.5 1.5 0 1 1-2.121 2.121l-1.061-1.061a1.5 1.5 0 1 1 2.121-2.121zM4.575 6.697L3.514 5.636a1.5 1.5 0 1 1 2.121-2.121l1.061 1.061a1.5 1.5 0 1 1-2.121 2.121zm14.85 0a1.5 1.5 0 1 1-2.121-2.121l1.061-1.061a1.5 1.5 0 1 1 2.121 2.121l-1.061 1.061zM4.575 17.303a1.5 1.5 0 1 1 2.121 2.121l-1.061 1.061a1.5 1.5 0 1 1-2.121-2.121l1.061-1.061z"/></svg>
